img/process/icon4.svg

<svg width="24" height="25" viewBox="0 0 24 25" fill="none" xmlns="http://www.w3.org/2000/svg">
<g clip-path="url(#clip0_30_17086)">
<path d="M15.4911 13.4536C15.1644 15.0563 13.6974 16.2661 11.9997 16.2661C10.3021 16.2661 8.88194 15.0563 8.55527 13.4536H7.14893C7.49378 15.8325 9.52685 17.6724 11.9997 17.6724C14.4726 17.6724 16.5526 15.8325 16.8974 13.4536H15.4911Z" fill="url(#paint0_linear_30_17086)"/>
<path d="M18.3039 13.4536C17.949 16.609 15.2488 19.0786 12 19.0786C8.75123 19.0786 6.09792 16.609 5.74294 13.4536H0V14.1567C0 14.4596 0.194344 14.7287 0.481359 14.8241L3.37439 15.7683C3.49594 16.113 3.62433 16.4268 3.76167 16.7165L2.42681 19.3986C2.29223 19.6691 2.34577 19.9953 2.55933 20.2088L4.54167 22.1912C4.75659 22.4061 5.08205 22.4569 5.35191 22.3237L8.03395 20.9888C8.32373 21.1262 8.63752 21.2546 8.98219 21.3761L9.92634 24.2691C10.0218 24.5561 10.2909 24.7505 10.5938 24.7505H13.4531C13.7559 24.7505 14.0251 24.5561 14.1205 24.2691L15.0647 21.3761C15.4094 21.2546 15.7232 21.1262 16.0129 20.9888L18.695 22.3237C18.9648 22.4576 19.291 22.4061 19.5052 22.1912L21.4875 20.2088C21.7011 19.9953 21.7546 19.6691 21.6201 19.3986L20.2852 16.7165C20.4225 16.4268 20.5509 16.113 20.6725 15.7683L23.5186 14.8241C23.8057 14.7287 24 14.4596 24 14.1567V13.4536H18.3039Z" fill="url(#paint1_linear_30_17086)"/>
<path d="M10.02 13.4536C10.3113 14.2703 11.0844 14.8599 11.9999 14.8599C12.9153 14.8599 13.7354 14.2703 14.0266 13.4536H10.02Z" fill="url(#paint2_linear_30_17086)"/>
<path d="M12 0.750488C10.4489 0.750488 9.1875 2.01185 9.1875 3.56299C9.1875 5.11413 10.4489 6.37549 12 6.37549C13.5511 6.37549 14.8594 5.11413 14.8594 3.56299C14.8594 2.01185 13.5511 0.750488 12 0.750488Z" fill="url(#paint3_linear_30_17086)"/>
<path d="M19.0781 0.750488C17.527 0.750488 16.2656 2.01185 16.2656 3.56299C16.2656 5.11413 17.527 6.37549 19.0781 6.37549C20.6293 6.37549 21.8906 5.11413 21.8906 3.56299C21.8906 2.01185 20.6293 0.750488 19.0781 0.750488Z" fill="url(#paint4_linear_30_17086)"/>
<path d="M4.96875 0.750488C3.41761 0.750488 2.15625 2.01185 2.15625 3.56299C2.15625 5.11413 3.41761 6.37549 4.96875 6.37549C6.51989 6.37549 7.78125 5.11413 7.78125 3.56299C7.78125 2.01185 6.51989 0.750488 4.96875 0.750488Z" fill="url(#paint5_linear_30_17086)"/>
<path d="M21.4764 7.02649C20.7945 7.50035 19.9697 7.78197 19.0781 7.78197C18.1902 7.78197 17.368 7.50335 16.6876 7.0331C16.3792 7.21015 16.0828 7.40922 15.8145 7.64927C17.1818 8.67143 18.1312 10.2678 18.332 12.0476H24V11.3445C24 9.5059 22.9743 7.87141 21.4764 7.02649Z" fill="url(#paint6_linear_30_17086)"/>
<path d="M12.0002 7.78174C9.52481 7.78174 7.47037 9.66541 7.12842 12.0474H16.9188C16.5769 9.66541 14.4756 7.78174 12.0002 7.78174Z" fill="url(#paint7_linear_30_17086)"/>
<path d="M7.35923 7.0331C6.67884 7.50335 5.85666 7.78197 4.96875 7.78197C4.07714 7.78197 3.25237 7.50035 2.57039 7.02649C1.07255 7.87141 0 9.5059 0 11.3445V12.0476H5.71481C5.91562 10.2678 6.86498 8.67143 8.23237 7.64927C7.96397 7.40922 7.66762 7.21015 7.35923 7.0331Z" fill="url(#paint8_linear_30_17086)"/>
</g>
<defs>
<linearGradient id="paint0_linear_30_17086" x1="7.14893" y1="15.563" x2="16.8974" y2="15.563" gradientUnits="userSpaceOnUse">
<stop stop-color="#6A11CB"/>
<stop offset="1" stop-color="#2575FC"/>
</linearGradient>
<linearGradient id="paint1_linear_30_17086" x1="0" y1="19.1021" x2="24" y2="19.1021" gradientUnits="userSpaceOnUse">
<stop stop-color="#6A11CB"/>
<stop offset="1" stop-color="#2575FC"/>
</linearGradient>
<linearGradient id="paint2_linear_30_17086" x1="10.02" y1="14.1567" x2="14.0266" y2="14.1567" gradientUnits="userSpaceOnUse">
<stop stop-color="#6A11CB"/>
<stop offset="1" stop-color="#2575FC"/>
</linearGradient>
<linearGradient id="paint3_linear_30_17086" x1="9.1875" y1="3.56299" x2="14.8594" y2="3.56299" gradientUnits="userSpaceOnUse">
<stop stop-color="#6A11CB"/>
<stop offset="1" stop-color="#2575FC"/>
</linearGradient>
<linearGradient id="paint4_linear_30_17086" x1="16.2656" y1="3.56299" x2="21.8906" y2="3.56299" gradientUnits="userSpaceOnUse">
<stop stop-color="#6A11CB"/>
<stop offset="1" stop-color="#2575FC"/>
</linearGradient>
<linearGradient id="paint5_linear_30_17086" x1="2.15625" y1="3.56299" x2="7.78125" y2="3.56299" gradientUnits="userSpaceOnUse">
<stop stop-color="#6A11CB"/>
<stop offset="1" stop-color="#2575FC"/>
</linearGradient>
<linearGradient id="paint6_linear_30_17086" x1="15.8145" y1="9.53704" x2="24" y2="9.53704" gradientUnits="userSpaceOnUse">
<stop stop-color="#6A11CB"/>
<stop offset="1" stop-color="#2575FC"/>
</linearGradient>
<linearGradient id="paint7_linear_30_17086" x1="7.12842" y1="9.91455" x2="16.9188" y2="9.91455" gradientUnits="userSpaceOnUse">
<stop stop-color="#6A11CB"/>
<stop offset="1" stop-color="#2575FC"/>
</linearGradient>
<linearGradient id="paint8_linear_30_17086" x1="0" y1="9.53704" x2="8.23237" y2="9.53704" gradientUnits="userSpaceOnUse">
<stop stop-color="#6A11CB"/>
<stop offset="1" stop-color="#2575FC"/>
</linearGradient>
<clipPath id="clip0_30_17086">
<rect width="24" height="24" fill="white" transform="translate(0 0.750488)"/>
</clipPath>
</defs>
</svg>

<svg width="24" height="25" viewBox="0 0 24 25" fill="none" xmlns="http://www.w3.org/2000/svg"><g clip-path="url(#clip0_30_17086)"><path d="M15.491 13.454c-.327 1.602-1.794 2.812-3.491 2.812a3.521 3.521 0 01-3.445-2.812H7.15c.345 2.378 2.378 4.218 4.85 4.218 2.474 0 4.554-1.84 4.898-4.218h-1.406z" fill="url(#paint0_linear_30_17086)"/><path d="M18.304 13.454c-.355 3.155-3.055 5.625-6.304 5.625s-5.902-2.47-6.257-5.625H0v.703c0 .303.194.572.481.667l2.893.944c.122.345.25.659.388.948L2.427 19.4a.703.703 0 00.132.81l1.983 1.982c.215.215.54.266.81.133l2.682-1.335c.29.137.604.266.948.387l.944 2.893a.704.704 0 00.668.482h2.86a.704.704 0 00.666-.482l.945-2.893c.344-.121.658-.25.948-.387l2.682 1.335c.27.134.596.082.81-.133l1.983-1.982a.703.703 0 00.132-.81l-1.335-2.683c.137-.29.266-.603.387-.948l2.847-.944a.704.704 0 00.481-.667v-.703h-5.696z" fill="url(#paint1_linear_30_17086)"/><path d="M10.02 13.454A2.106 2.106 0 0012 14.86c.915 0 1.735-.59 2.027-1.406H10.02z" fill="url(#paint2_linear_30_17086)"/><path d="M12 .75a2.815 2.815 0 00-2.813 2.813A2.815 2.815 0 0012 6.375c1.551 0 2.86-1.26 2.86-2.812C14.86 2.012 13.55.75 12 .75z" fill="url(#paint3_linear_30_17086)"/><path d="M19.078.75a2.815 2.815 0 00-2.812 2.813 2.815 2.815 0 002.812 2.812 2.815 2.815 0 002.813-2.812A2.815 2.815 0 0019.078.75z" fill="url(#paint4_linear_30_17086)"/><path d="M4.969.75a2.815 2.815 0 00-2.813 2.813A2.815 2.815 0 004.97 6.375a2.815 2.815 0 002.81-2.812A2.815 2.815 0 004.97.75z" fill="url(#paint5_linear_30_17086)"/><path d="M21.476 7.026a4.188 4.188 0 01-4.788.007 5.117 5.117 0 00-.873.616 6.424 6.424 0 012.517 4.399H24v-.704a4.982 4.982 0 00-2.524-4.318z" fill="url(#paint6_linear_30_17086)"/><path d="M12 7.782c-2.475 0-4.53 1.883-4.872 4.265h9.79c-.34-2.382-2.441-4.265-4.918-4.265z" fill="url(#paint7_linear_30_17086)"/><path d="M7.36 7.033a4.19 4.19 0 01-4.79-.007C1.073 7.871 0 9.506 0 11.345v.703h5.715a6.424 6.424 0 012.517-4.399 5.122 5.122 0 00-.873-.616z" fill="url(#paint8_linear_30_17086)"/></g><defs><linearGradient id="paint0_linear_30_17086" x1="7.149" y1="15.563" x2="16.897" y2="15.563" gradientUnits="userSpaceOnUse"><stop stop-color="#6A11CB"/><stop offset="1" stop-color="#2575FC"/></linearGradient><linearGradient id="paint1_linear_30_17086" x1="0" y1="19.102" x2="24" y2="19.102" gradientUnits="userSpaceOnUse"><stop stop-color="#6A11CB"/><stop offset="1" stop-color="#2575FC"/></linearGradient><linearGradient id="paint2_linear_30_17086" x1="10.02" y1="14.157" x2="14.027" y2="14.157" gradientUnits="userSpaceOnUse"><stop stop-color="#6A11CB"/><stop offset="1" stop-color="#2575FC"/></linearGradient><linearGradient id="paint3_linear_30_17086" x1="9.188" y1="3.563" x2="14.859" y2="3.563" gradientUnits="userSpaceOnUse"><stop stop-color="#6A11CB"/><stop offset="1" stop-color="#2575FC"/></linearGradient><linearGradient id="paint4_linear_30_17086" x1="16.266" y1="3.563" x2="21.891" y2="3.563" gradientUnits="userSpaceOnUse"><stop stop-color="#6A11CB"/><stop offset="1" stop-color="#2575FC"/></linearGradient><linearGradient id="paint5_linear_30_17086" x1="2.156" y1="3.563" x2="7.781" y2="3.563" gradientUnits="userSpaceOnUse"><stop stop-color="#6A11CB"/><stop offset="1" stop-color="#2575FC"/></linearGradient><linearGradient id="paint6_linear_30_17086" x1="15.815" y1="9.537" x2="24" y2="9.537" gradientUnits="userSpaceOnUse"><stop stop-color="#6A11CB"/><stop offset="1" stop-color="#2575FC"/></linearGradient><linearGradient id="paint7_linear_30_17086" x1="7.128" y1="9.915" x2="16.919" y2="9.915" gradientUnits="userSpaceOnUse"><stop stop-color="#6A11CB"/><stop offset="1" stop-color="#2575FC"/></linearGradient><linearGradient id="paint8_linear_30_17086" x1="0" y1="9.537" x2="8.232" y2="9.537" gradientUnits="userSpaceOnUse"><stop stop-color="#6A11CB"/><stop offset="1" stop-color="#2575FC"/></linearGradient><clipPath id="clip0_30_17086"><path fill="#fff" transform="translate(0 .75)" d="M0 0h24v24H0z"/></clipPath></defs></svg>
